images/transit/light-rail-inbound.svg

<?xml version="1.0" standalone="no"?><!DOCTYPE svg PUBLIC "-//W3C//DTD SVG 1.1//EN" "http://www.w3.org/Graphics/SVG/1.1/DTD/svg11.dtd"><svg width="240px" height="408px" version="1.1" xmlns="http://www.w3.org/2000/svg" xmlns:xlink="http://www.w3.org/1999/xlink" xml:space="preserve" style="fill-rule:evenodd;clip-rule:evenodd;stroke-linejoin:round;stroke-miterlimit:1.41421;"><g><g id="light-rail-inbound" transform="matrix(1.00015,0,0,1.00015,-1018.63,-357.389)"><g transform="matrix(1,0,0,1,10.7236,0)"><path d="M1197.32,765.277l-11.451,0l-0.017,-24.661l13.159,0.211l-1.691,24.45Z" style="fill:#292a29;fill-rule:nonzero;"/></g><g transform="matrix(1,0,0,1,10.7236,0)"><path d="M1061.55,765.027l11.451,0l0.017,-22.161l-13.159,0.211l1.691,21.95Z" style="fill:#292a29;fill-rule:nonzero;"/></g><g transform="matrix(1,0,0,1,10.7236,0)"><path d="M1086.09,386.669l33.084,65.333l5.25,0l-33,-65.333" style="fill:#2a2b2a;fill-rule:nonzero;"/></g><g transform="matrix(1,0,0,1,10.7236,0)"><path d="M1169.42,386.669l-33.084,65.333l-5.25,0l33,-65.333" style="fill:#2a2b2a;fill-rule:nonzero;"/></g><g transform="matrix(1,0,0,1,10.7236,0)"><path d="M1047.02,719.938l0.042,24.679l164.124,-0.367l-0.32,-24.083l-163.846,-0.229Z" style="fill:#5d5f60;fill-rule:nonzero;"/></g><g transform="matrix(1,0,0,1,10.7236,0)"><path d="M1102.23,449.866l-4.454,21.271l59.205,-0.105l-4.417,-20.166l-50.334,-1Z" style="fill:#5c5e5f;fill-rule:nonzero;"/></g><g transform="matrix(1,0,0,1,10.7236,0)"><path d="M1032.47,734.277l190.708,0l-2.812,-252.647l-13.966,-14.833l-155.991,2.11l-12.581,15.15l-5.358,250.22Z" style="fill:#e5e3dd;fill-rule:nonzero;"/></g><g transform="matrix(1,0,0,1,10.7236,0)"><path d="M1059.06,492.468l-2.096,176.83l13.461,13.961l116.004,-0.338l13.56,-14.04l-0.403,-175.359l-140.526,-1.054Z" style="fill:#313156;fill-rule:nonzero;"/></g><g transform="matrix(1,0,0,1,10.7236,0)"><path d="M1059.33,492.713l-0.458,26.429l140.874,-0.367l-0.07,-25.083l-140.346,-0.979Z" style="fill:#2a2b2a;fill-rule:nonzero;"/></g><g transform="matrix(1,0,0,1,10.7236,0)"><path d="M1067.51,503.74l0,-2.865l8.349,0.073l0.151,-2.745l-11.435,0.225l0.029,8.271l8.138,0.105l0.015,4.198l-7.896,0.246l-0.091,2.428l11.038,-0.028l-0.001,-9.695" style="fill:#f19e75;fill-rule:nonzero;"/></g><g transform="matrix(1,0,0,1,10.7236,0)"><path d="M1183.1,695.981l3.127,-9.402l-18.691,-0.036l3.043,9.479l12.521,-0.041Z" style="fill:#f9f5e3;fill-rule:nonzero;"/></g><g transform="matrix(1,0,0,1,10.7236,0)"><path d="M1086.76,695.981l3.127,-9.402l-18.691,-0.036l3.043,9.479l12.521,-0.041Z" style="fill:#f9f5e3;fill-rule:nonzero;"/></g><g transform="matrix(1,0,0,1,10.7236,0)"><path d="M1033.02,706.616l-0.708,29.679l190.872,-0.367l-0.318,-29.083l-189.846,-0.229Z" style="fill:#89bb6b;fill-rule:nonzero;"/></g><g transform="matrix(1,0,0,1,10.7236,0)"><path d="M1055.82,686.313l-3.127,9.402l18.691,0.036l-3.043,-9.479l-12.521,0.041Z" style="fill:#c2bfbb;fill-rule:nonzero;"/></g><g transform="matrix(1,0,0,1,10.7236,0)"><path d="M1201.15,686.324l3.127,9.402l-18.691,0.036l3.043,-9.479l12.521,0.041Z" style="fill:#c2bfbb;fill-rule:nonzero;"/></g><g transform="matrix(1,0,0,1,10.7236,0)"><path d="M1164,388.75l30.312,0.25l5.46,11.821l5.229,-0.633l-8.022,-16.26l-138.2,0l-8.022,16.26l5.228,0.633l5.461,-11.821l24.312,-0.25" style="fill:#2a2b2a;fill-rule:nonzero;"/></g><g transform="matrix(1,0,0,1,10.7236,0)"><clipPath id="tag1"><path d="M1056.97,669.297l13.46,13.961l116.004,-0.337l13.561,-14.041l-0.403,-175.359l-140.526,-1.052l-2.096,176.828Z"/></clipPath><g clip-path="url(#tag1)"><clipPath id="tag2"><rect x="1054.71" y="518.991" width="106.432" height="106.082"/></clipPath><g clip-path="url(#tag2)"><g opacity="0.300003"><path d="M1161.14,518.991l-106.432,106.082l0.069,-106.078l106.363,-0.004Z" style="fill:#0c1825;fill-rule:nonzero;"/></g></g><clipPath id="tag3"><rect x="1101.07" y="584.234" width="101.244" height="102.038"/></clipPath><g clip-path="url(#tag3)"><g opacity="0.300003"><path d="M1202.29,686.245l0.031,-102.011l-99.996,95.488l-1.248,6.55l101.213,-0.027Z" style="fill:#0c1825;fill-rule:nonzero;"/></g></g></g></g><g transform="matrix(1,0,0,1,10.7236,0)"><path d="M1097.94,683.179l6.215,-0.018l95.648,-95.99l-0.013,-5.982l-101.85,101.99Z" style="fill:#4a4b73;fill-rule:nonzero;"/></g></g></g></svg>

<?xml version="1.0" encoding="UTF-8" standalone="no"?>
<!DOCTYPE svg PUBLIC "-//W3C//DTD SVG 1.1//EN" "http://www.w3.org/Graphics/SVG/1.1/DTD/svg11.dtd">
<svg width="100%" height="100%" viewBox="0 0 240 408" version="1.1" xmlns="http://www.w3.org/2000/svg" xmlns:xlink="http://www.w3.org/1999/xlink" xml:space="preserve" style="fill-rule:evenodd;clip-rule:evenodd;stroke-linejoin:round;stroke-miterlimit:1.41421;">
    <g id="light-rail-inbound" transform="matrix(1.00015,0,0,1.00015,-1020.18,-357.389)">
        <g transform="matrix(1,0,0,1,10.1536,0)">
            <path d="M1197.32,765.277L1185.87,765.277L1185.86,740.616L1199.02,740.827L1197.32,765.277Z" style="fill:rgb(40,41,40);fill-rule:nonzero;"/>
        </g>
        <g transform="matrix(1,0,0,1,11.0113,0)">
            <path d="M1061.55,765.027L1073,765.027L1073.02,742.866L1059.86,743.077L1061.55,765.027Z" style="fill:rgb(40,41,40);fill-rule:nonzero;"/>
        </g>
        <g transform="matrix(1,0,0,1,10.7236,0)">
            <path d="M1086.09,386.669L1119.17,452.002L1124.42,452.002L1091.42,386.669" style="fill:rgb(41,43,41);fill-rule:nonzero;"/>
        </g>
        <g transform="matrix(1,0,0,1,10.7236,0)">
            <path d="M1169.42,386.669L1136.34,452.002L1131.09,452.002L1164.09,386.669" style="fill:rgb(41,43,41);fill-rule:nonzero;"/>
        </g>
        <g transform="matrix(1,0,0,1,10.7236,0)">
            <path d="M1047.02,719.938L1047.06,744.617L1211.18,744.25L1210.86,720.167L1047.02,719.938Z" style="fill:rgb(92,95,96);fill-rule:nonzero;"/>
        </g>
        <g transform="matrix(1,0,0,1,10.7236,0)">
            <path d="M1102.23,449.866L1097.78,471.137L1156.98,471.032L1152.56,450.866L1102.23,449.866Z" style="fill:rgb(91,93,94);fill-rule:nonzero;"/>
        </g>
        <g transform="matrix(1,0,0,1,10.7236,0)">
            <path d="M1032.47,734.277L1223.18,734.277L1220.37,481.63L1206.4,466.797L1050.41,466.821L1037.83,484.057L1032.47,734.277Z" style="fill:rgb(229,226,220);fill-rule:nonzero;"/>
        </g>
        <g transform="matrix(1,0,0,1,10.7236,0)">
            <path d="M1059.06,492.468L1056.96,669.298L1070.43,683.259L1186.43,682.921L1199.99,668.881L1199.59,493.522L1059.06,492.468Z" style="fill:rgb(49,49,86);fill-rule:nonzero;"/>
        </g>
        <g transform="matrix(1,0,0,1,10.7236,0)">
            <path d="M1059.33,492.713L1058.88,519.142L1199.75,518.775L1199.68,493.692L1059.33,492.713Z" style="fill:rgb(41,43,41);fill-rule:nonzero;"/>
        </g>
        <g transform="matrix(1,0,0,1,10.7236,0)">
            <path d="M1067.51,503.74L1067.51,500.875L1075.86,500.948L1076.01,498.203L1064.58,498.428L1064.61,506.699L1072.74,506.804L1072.76,511.002L1064.86,511.248L1064.77,513.676L1075.81,513.648L1075.81,503.953" style="fill:rgb(240,157,116);fill-rule:nonzero;"/>
        </g>
        <g transform="matrix(1,0,0,1,10.7236,0)">
            <path d="M1183.1,695.981L1186.23,686.579L1167.53,686.543L1170.58,696.022L1183.1,695.981Z" style="fill:rgb(248,244,227);fill-rule:nonzero;"/>
        </g>
        <g transform="matrix(1,0,0,1,10.7236,0)">
            <path d="M1086.76,695.981L1089.88,686.579L1071.19,686.543L1074.24,696.022L1086.76,695.981Z" style="fill:rgb(248,244,227);fill-rule:nonzero;"/>
        </g>
        <g transform="matrix(1,0,0,1,10.7236,0)">
            <path d="M1033.02,706.616L1032.31,736.295L1223.18,735.928L1222.86,706.845L1033.02,706.616Z" style="fill:rgb(137,187,106);fill-rule:nonzero;"/>
        </g>
        <g transform="matrix(1,0,0,1,10.7236,0)">
            <path d="M1055.82,686.314L1052.69,695.716L1071.38,695.752L1068.34,686.272L1055.82,686.314Z" style="fill:rgb(193,190,187);fill-rule:nonzero;"/>
        </g>
        <g transform="matrix(1,0,0,1,10.7236,0)">
            <path d="M1201.15,686.324L1204.28,695.726L1185.59,695.762L1188.63,686.283L1201.15,686.324Z" style="fill:rgb(193,190,187);fill-rule:nonzero;"/>
        </g>
        <g transform="matrix(1,0,0,1,10.7236,0)">
            <path d="M1164,388.75L1194.31,389L1199.77,400.821L1205,400.188L1196.98,383.928L1167,383.928L1087.76,383.928L1058.78,383.928L1050.76,400.188L1055.98,400.821L1061.44,389L1085.76,388.75" style="fill:rgb(41,43,41);fill-rule:nonzero;"/>
        </g>
        <g transform="matrix(1,0,0,1,10.7236,0)">
            <clipPath id="_clip1">
                <path d="M1056.96,669.297L1070.42,683.258L1186.43,682.921L1199.99,668.88L1199.59,493.521L1059.06,492.469L1056.96,669.297Z"/>
            </clipPath>
            <g clip-path="url(#_clip1)">
                <g>
                    <clipPath id="_clip2">
                        <rect x="1054.71" y="518.991" width="106.432" height="106.082"/>
                    </clipPath>
                    <g clip-path="url(#_clip2)">
                        <g opacity="0.300003">
                            <path d="M1161.14,518.991L1054.71,625.073L1054.78,518.995L1161.14,518.991Z" style="fill:rgb(12,24,37);fill-rule:nonzero;"/>
                        </g>
                    </g>
                </g>
                <g>
                    <clipPath id="_clip3">
                        <rect x="1101.07" y="584.234" width="101.244" height="102.038"/>
                    </clipPath>
                    <g clip-path="url(#_clip3)">
                        <g opacity="0.300003">
                            <path d="M1202.29,686.245L1202.32,584.234L1102.32,679.722L1101.07,686.272L1202.29,686.245Z" style="fill:rgb(12,24,37);fill-rule:nonzero;"/>
                        </g>
                    </g>
                </g>
            </g>
        </g>
        <g transform="matrix(1,0,0,1,10.7236,0)">
            <path d="M1097.94,683.179L1104.15,683.161L1199.8,587.171L1199.79,581.189L1097.94,683.179Z" style="fill:rgb(73,75,114);fill-rule:nonzero;"/>
        </g>
    </g>
</svg>
